X:1
T:Saffron Walden, 88.86
T:Arthur Henry Brown, 1890
T:Saffron Walden, 88.86
T:Public Domain
C:Arthur Henry Brown, 1890
Z:Public Domain
%%score ( 1 2 ) ( 3 4 )
L:1/8
M:3/4
K:D
V:1 treble 
V:2 treble 
V:3 bass 
V:4 bass 
V:1
 [DF]2 [CE]2 D2 | [DA]4 [Ad]2 | (d2 c2) [GB]2 | [GA]6 | (FE) G2 z C x | [B,E]2 [A,C]2 [A,D]2 | %6
 B,2 z A [DF]2 | [CE]4 [CE]2 | (C2 D2) [EA]2 | [DA]4 [Dd]2 | (d2 B2) [DG]2 | [CE]6 | %12
 [CA]2 D2 [DE]2 | [DF]4 [CE]2 | D6 |] %15
V:2
 x4 D2 | x6 | G4 x2 | x6 | A2 D3 F2 | x6 | G3 C2 x | x6 | A4 x2 | x6 | D4 x2 | x6 | x2 D2 x2 | x6 | %14
 D6 |] %15
V:3
 [D,A,]2 [A,,G,]2 [B,,F,]2 | [F,,A,]4 [F,A,]2 | (B,2 C2) [D,D]2 | [C,E]6 | (DC) [D,B,]2 [D,A,]2 x | %5
 G,4 [F,A,]2 | [E,G,]4 [D,A,]2 | [A,,A,]4 A,2 | (A,2 B,2) [G,C]2 | [F,D]4 [F,=C]2 | %10
 [G,B,]4 [E,B,]2 | [A,,A,]6 | [F,,A,]2 [B,,F,]2 [G,,B,]2 | [A,,A,]4 [A,,G,]2 | [D,F,]6 |] %15
V:4
 x6 | x6 | E,4 x2 | x6 | D,2 x5 | G,4 x2 | x6 | x4 A,2 | A,4 x2 | x6 | x6 | x6 | x6 | x6 | x6 |] %15

